X: 7
T: The Traveling Fiddler
C: Armand Aromin
H: 8/26/04
M: 6/8
L: 1/8
R: Jig
K: Ador
ed || cAA EAA | cAc edc | BGG dGG | eGG dGG |
cAA EAA | cAc d2 e | dcB ABc |1 BAA Aed :|2 BAA A2 B ||
cee edc | dgg ged | cee edc | Bdd dcB |
ABc cBA | GBd g2 e | dcB ABc |1 BAA A2 B :|2 BAA Aed |]
